svg/motor_outline.svg

<svg xmlns="http://www.w3.org/2000/svg" width="24" height="24" viewBox="0 0 24 24"><path d="M12 2a10 10 0 1 0 10 10A10 10 0 0 0 12 2zm0 18a8 8 0 1 1 8-8 8 8 0 0 1-8 8zm1.75-12.09h3.09v8.59h-2.09v-4.41c0-.24 0-.82.08-1.75h-.05l-1.72 6.16h-2.2l-1.75-6.17h-.06c.08 1.05.13 1.87.13 2.45v3.72H7.12V7.93h3.09L12 14z" fill-rule="evenodd"/><path fill="none" d="M0 0h24v24H0z"/></svg>

<svg xmlns="http://www.w3.org/2000/svg" width="24" height="24" viewBox="0 0 24 24"><path d="M12,2A10,10,0,1,0,22,12,10,10,0,0,0,12,2Zm0,18a8,8,0,1,1,8-8A8,8,0,0,1,12,20ZM13.75,7.91h3.09V16.5H14.75V12.09c0-.24,0-.82.08-1.75h-.05L13.06,16.5h-2.2L9.11,10.33H9.05c.08,1.05.13,1.87.13,2.45V16.5H7.12V7.93h3.09L12,14Z" fill-rule="evenodd"/><rect width="24" height="24" fill="none"/></svg>
